src/icons/remove-cost.svg

<?xml version="1.0" encoding="UTF-8"?>
<svg xmlns="http://www.w3.org/2000/svg" xmlns:xlink="http://www.w3.org/1999/xlink" width="32" height="32" viewBox="0 0 32 32" version="1.1">
<g id="surface1">
<path style=" stroke:none;fill-rule:nonzero;fill:rgb(0%,0%,0%);fill-opacity:1;" d="M 16 1.28125 C 7.882812 1.28125 1.28125 7.882812 1.28125 16 C 1.28125 24.117188 7.882812 30.71875 16 30.71875 C 17.703125 30.71875 19.335938 30.425781 20.859375 29.890625 C 20.9375 29.976562 21.011719 30.0625 21.09375 30.144531 C 23.589844 32.628906 27.664062 32.617188 30.144531 30.121094 C 32.628906 27.625 32.617188 23.550781 30.121094 21.070312 C 30.046875 20.996094 29.96875 20.933594 29.890625 20.863281 C 30.425781 19.339844 30.71875 17.703125 30.71875 16 C 30.71875 7.882812 24.117188 1.28125 16 1.28125 Z M 15.359375 6.398438 L 16.671875 6.398438 L 16.671875 8.191406 C 19.746094 8.320312 21.023438 10.945312 20.894531 12.734375 L 19.550781 12.734375 C 19.488281 11.648438 19.105469 9.214844 16.03125 9.214844 C 13.023438 9.214844 12.449219 10.945312 12.449219 12.417969 C 12.449219 16.832031 21.214844 13.886719 21.214844 19.648438 C 21.214844 20.289062 20.929688 23.488281 16.640625 23.808594 L 16.640625 25.601562 L 15.359375 25.601562 L 15.359375 23.808594 C 13.632812 23.617188 10.910156 23.039062 10.785156 18.753906 L 12.128906 18.753906 C 12 22.785156 15.90625 22.785156 16.03125 22.785156 C 19.808594 22.785156 19.9375 20.222656 19.9375 19.648438 C 19.9375 15.101562 11.167969 18.304688 11.167969 12.289062 C 11.167969 11.070312 11.777344 8.382812 15.359375 8.191406 Z M 25.59375 20.492188 C 26.90625 20.488281 28.21875 20.984375 29.21875 21.976562 C 31.214844 23.964844 31.222656 27.222656 29.238281 29.21875 C 27.25 31.214844 23.992188 31.226562 21.996094 29.238281 C 20 27.253906 19.992188 23.996094 21.976562 21.996094 C 22.96875 21 24.28125 20.496094 25.59375 20.492188 Z M 27.839844 22.722656 C 27.679688 22.722656 27.519531 22.785156 27.390625 22.914062 L 25.605469 24.710938 L 23.808594 22.925781 C 23.550781 22.667969 23.167969 22.671875 22.914062 22.925781 C 22.65625 23.183594 22.660156 23.570312 22.914062 23.824219 L 24.710938 25.609375 L 22.925781 27.40625 C 22.667969 27.664062 22.671875 28.046875 22.925781 28.304688 C 23.183594 28.558594 23.570312 28.558594 23.824219 28.300781 L 25.609375 26.503906 L 27.40625 28.292969 C 27.664062 28.546875 28.046875 28.546875 28.304688 28.289062 C 28.429688 28.160156 28.492188 27.96875 28.492188 27.839844 C 28.492188 27.710938 28.429688 27.519531 28.300781 27.390625 L 26.503906 25.605469 L 28.289062 23.808594 C 28.417969 23.679688 28.484375 23.488281 28.484375 23.359375 C 28.480469 23.230469 28.417969 23.039062 28.289062 22.914062 C 28.160156 22.785156 28 22.722656 27.839844 22.722656 Z M 27.839844 22.722656 "/>
</g>
</svg>

<svg role="img" viewBox="0 0 32 32" xmlns="http://www.w3.org/2000/svg"><path d="M16 1.281C7.883 1.281 1.281 7.883 1.281 16c0 8.117 6.602 14.719 14.719 14.719 1.703 0 3.336-.293 4.86-.828.078.086.152.172.234.254 2.496 2.484 6.57 2.472 9.05-.024 2.485-2.496 2.473-6.57-.023-9.05-.074-.075-.152-.137-.23-.208.535-1.523.828-3.16.828-4.863 0-8.117-6.602-14.719-14.719-14.719m-.64 5.117h1.312v1.793c3.074.13 4.351 2.754 4.223 4.543H19.55c-.063-1.086-.446-3.52-3.52-3.52-3.008 0-3.582 1.731-3.582 3.204 0 4.414 8.766 1.469 8.766 7.23 0 .641-.285 3.84-4.574 4.16v1.794h-1.282v-1.793c-1.726-.192-4.449-.77-4.574-5.055h1.344c-.129 4.031 3.777 4.031 3.902 4.031 3.778 0 3.907-2.562 3.907-3.137 0-4.546-8.77-1.343-8.77-7.359 0-1.219.61-3.906 4.191-4.098Zm10.234 14.094a5.11 5.11 0 0 1 3.625 1.485c1.996 1.988 2.004 5.246.02 7.242-1.989 1.996-5.247 2.008-7.243.02-1.996-1.985-2.004-5.243-.02-7.243a5.116 5.116 0 0 1 3.618-1.504m2.246 2.23c-.16 0-.32.063-.45.192l-1.785 1.797-1.796-1.785a.617.617 0 0 0-.895 0 .622.622 0 0 0 0 .898l1.797 1.785-1.785 1.797a.622.622 0 0 0 0 .899.622.622 0 0 0 .898-.004l1.785-1.797 1.797 1.789c.258.254.64.254.899-.004a.703.703 0 0 0 .187-.45.689.689 0 0 0-.191-.448l-1.797-1.786 1.785-1.796a.695.695 0 0 0 .195-.45.698.698 0 0 0-.195-.445.631.631 0 0 0-.45-.191m0 0" style="stroke:none;fill-rule:nonzero;fill:rgb(0%,0%,0%);fill-opacity:1"/></svg>
